X:26
T:Somebody
N:page 18 on manuscript
M:6/8
L:1/8
K:F
c | d2 d d>ef | c2 c c2 B | A2 A A>Bc | G2 G G2 c | d2 d d>ef | {d}c2 c c2 B | A>Bc e2 A | TG>FG F2A |
B3 G3 | A2 c A2 A | B3 G3 | A2 (c/A/ F2) c | d2 d d>ef | {d}c2 c c2 B | A>Bc {de}f2 A | TG>FG F2 |]

